assets/faces/shapes/face-oval-v2.svg

<svg viewBox="0 0 600 800" fill="none" xmlns="http://www.w3.org/2000/svg">
  <path xmlns="http://www.w3.org/2000/svg" d="M0,800v-800h600v800z" id="imported-0" fill="none" fill-rule="nonzero" stroke="none" stroke-width="1" stroke-linecap="butt" stroke-linejoin="miter" stroke-miterlimit="10" stroke-dasharray="" stroke-dashoffset="0" font-family="none" font-weight="none" font-size="none" text-anchor="none" style="mix-blend-mode: normal"/>
  <path xmlns="http://www.w3.org/2000/svg" d="M200,272c-14.359,0 -26,11.641 -26,26c0,14.359 11.641,26 26,26h22v-52z" id="imported-1" fill="#ffffff" fill-rule="nonzero" stroke="#c0c0c0" stroke-width="8" stroke-linecap="butt" stroke-linejoin="miter" stroke-miterlimit="10" stroke-dasharray="" stroke-dashoffset="0" font-family="none" font-weight="none" font-size="none" text-anchor="none" style="mix-blend-mode: normal"/>
  <path xmlns="http://www.w3.org/2000/svg" d="M400,272c14.359,0 26,11.641 26,26c0,14.359 -11.641,26 -26,26h-22v-52z" id="imported-2" fill="#ffffff" fill-rule="nonzero" stroke="#c0c0c0" stroke-width="8" stroke-linecap="butt" stroke-linejoin="miter" stroke-miterlimit="10" stroke-dasharray="" stroke-dashoffset="0" font-family="none" font-weight="none" font-size="none" text-anchor="none" style="mix-blend-mode: normal"/>
  <path xmlns="http://www.w3.org/2000/svg" d="M192.17391,290c0,-61.85589 10.85848,-111.13043 107.82609,-112c96.96761,-0.86957 107.82609,50.14411 107.82609,112c0,61.85589 -72.6087,112 -107.82609,112c-35.21739,0 -107.82609,-50.14411 -107.82609,-112z" id="imported-3" fill="#ffffff" fill-rule="nonzero" stroke="#c0c0c0" stroke-width="8" stroke-linecap="butt" stroke-linejoin="miter" stroke-miterlimit="10" stroke-dasharray="" stroke-dashoffset="0" font-family="none" font-weight="none" font-size="none" text-anchor="none" style="mix-blend-mode: normal"/>
</svg>

<svg xmlns="http://www.w3.org/2000/svg" viewBox="0 0 600 800" fill="none">
  <!-- Oval face - taller, slightly narrower + ears - skin tintable -->
  <!-- Left ear -->
  <path d="M200 272C185.641 272 174 283.641 174 298C174 312.359 185.641 324 200 324H222V272H200Z" fill="#FFFFFF" stroke="#C0C0C0" stroke-width="8"/>
  <!-- Right ear -->
  <path d="M400 272C414.359 272 426 283.641 426 298C426 312.359 414.359 324 400 324H378V272H400Z" fill="#FFFFFF" stroke="#C0C0C0" stroke-width="8"/>
  <!-- Oval head -->
  <ellipse cx="300" cy="290" rx="100" ry="112" fill="#FFFFFF" stroke="#C0C0C0" stroke-width="8"/>
</svg>
